svgs/materials/action/swipe.svg

<svg xmlns="http://www.w3.org/2000/svg" enable-background="new 0 0 24 24" height="24" viewBox="0 0 24 24" width="24"><g><rect fill="none" height="24" width="24" x="0"/></g><g><g><path d="M18.89,14.75l-4.09-2.04c-0.28-0.14-0.58-0.21-0.89-0.21H13v-6C13,5.67,12.33,5,11.5,5S10,5.67,10,6.5v10.74L6.75,16.5 c-0.33-0.07-0.68,0.03-0.92,0.28L5,17.62l4.54,4.79C9.92,22.79,10.68,23,11.21,23h6.16c1,0,1.84-0.73,1.98-1.72l0.63-4.46 C20.1,15.97,19.66,15.14,18.89,14.75z"/><path d="M20.13,3.87C18.69,2.17,15.6,1,12,1S5.31,2.17,3.87,3.87L2,2v5h5L4.93,4.93c1-1.29,3.7-2.43,7.07-2.43 s6.07,1.14,7.07,2.43L17,7h5V2L20.13,3.87z"/></g></g></svg>

<?xml version="1.0" encoding="UTF-8" standalone="no"?>
<svg
   enable-background="new 0 0 24 24"
   height="24"
   viewBox="0 0 24 24"
   width="24"
   version="1.1"
   id="svg14"
   sodipodi:docname="swipe.svg"
   inkscape:version="1.2 (dc2aeda, 2022-05-15)"
   xmlns:inkscape="http://www.inkscape.org/namespaces/inkscape"
   xmlns:sodipodi="http://sodipodi.sourceforge.net/DTD/sodipodi-0.dtd"
   xmlns="http://www.w3.org/2000/svg"
   xmlns:svg="http://www.w3.org/2000/svg">
  <defs
     id="defs18" />
  <sodipodi:namedview
     id="namedview16"
     pagecolor="#ffffff"
     bordercolor="#000000"
     borderopacity="0.25"
     inkscape:showpageshadow="2"
     inkscape:pageopacity="0.0"
     inkscape:pagecheckerboard="0"
     inkscape:deskcolor="#d1d1d1"
     showgrid="false"
     inkscape:zoom="9.8333333"
     inkscape:cx="8.2372881"
     inkscape:cy="12"
     inkscape:window-width="1309"
     inkscape:window-height="456"
     inkscape:window-x="0"
     inkscape:window-y="25"
     inkscape:window-maximized="0"
     inkscape:current-layer="svg14" />
  <path
     id="rect2"
     style="fill:none"
     d="M 0,0 H 24 V 24 H 0 Z" />
  <path
     d="M 18.89,14.75 14.8,12.71 C 14.52,12.57 14.22,12.5 13.91,12.5 H 13 v -6 C 13,5.67 12.33,5 11.5,5 10.67,5 10,5.67 10,6.5 V 17.24 L 6.75,16.5 C 6.42,16.43 6.07,16.53 5.83,16.78 L 5,17.62 9.54,22.41 C 9.92,22.79 10.68,23 11.21,23 h 6.16 c 1,0 1.84,-0.73 1.98,-1.72 l 0.63,-4.46 c 0.12,-0.85 -0.32,-1.68 -1.09,-2.07 z"
     id="path6" />
  <path
     d="M 20.13,3.87 C 18.69,2.17 15.6,1 12,1 8.4,1 5.31,2.17 3.87,3.87 L 2,2 V 7 H 7 L 4.93,4.93 C 5.93,3.64 8.63,2.5 12,2.5 c 3.37,0 6.07,1.14 7.07,2.43 L 17,7 h 5 V 2 Z"
     id="path8" />
</svg>
